X: 14100
T: WENDY RAPPA'S REEL
C: Bob McQuillen 24 Nov.'08
B: Bob's Note Book 14 #100
%R: reel
%D:2008
Z: 2020 John Chambers <jc:trillian.mit.edu>
M: C
L: 1/8
K: G
BA \
| G2Bd edge | dedB AGED | G2BG EDBd | gedB A2GA |
| BGBd egdB | edBG AGED | G2Bd egdB | AGAB G2  :|
|: GA \
| BAGB d2de | gedB edBA | GEDE GABd | edBG A2GA |
| BAGB d2de | gedB ABGE | DEGE GBde | dBAB G2  :|
%%begintext align
%% This one's
%% for that really nice young woman who got
%% Old New England a job doing a concert at the
%% Deerfield Fair. It was a really nice gig and we
%% had a good time. Thanks loads, Wendy - it
%% was fun playing for you!
%%endtext

%%sep 1 1 500

%%sep 1 1 500

